storage/app/icons/phosphoricons/duotone/images-square-duotone.svg

<svg xmlns="http://www.w3.org/2000/svg" fill="currentColor" viewBox="0 0 256 256"><path d="M208 40H80a8 8 0 0 0-8 8v128a8 8 0 0 0 8 8h16.69l77.65-77.66a8 8 0 0 1 11.32 0L216 136.69V48a8 8 0 0 0-8-8m-88 64a16 16 0 1 1 16-16 16 16 0 0 1-16 16" opacity=".2"/><path d="M208 32H80a16 16 0 0 0-16 16v16H48a16 16 0 0 0-16 16v128a16 16 0 0 0 16 16h128a16 16 0 0 0 16-16v-16h16a16 16 0 0 0 16-16V48a16 16 0 0 0-16-16M80 48h128v69.38l-16.7-16.7a16 16 0 0 0-22.62 0L93.37 176H80Zm96 160H48V80h16v96a16 16 0 0 0 16 16h96Zm32-32h-92l64-64 28 28zm-88-64a24 24 0 1 0-24-24 24 24 0 0 0 24 24m0-32a8 8 0 1 1-8 8 8 8 0 0 1 8-8"/></svg>

<svg xmlns="http://www.w3.org/2000/svg" viewBox="0 0 256 256" fill="currentColor"><path d="M208,40H80a8,8,0,0,0-8,8V176a8,8,0,0,0,8,8H96.69l77.65-77.66a8,8,0,0,1,11.32,0L216,136.69V48A8,8,0,0,0,208,40Zm-88,64a16,16,0,1,1,16-16A16,16,0,0,1,120,104Z" opacity="0.2"/><path d="M208,32H80A16,16,0,0,0,64,48V64H48A16,16,0,0,0,32,80V208a16,16,0,0,0,16,16H176a16,16,0,0,0,16-16V192h16a16,16,0,0,0,16-16V48A16,16,0,0,0,208,32ZM80,48H208v69.38l-16.7-16.7a16,16,0,0,0-22.62,0L93.37,176H80Zm96,160H48V80H64v96a16,16,0,0,0,16,16h96Zm32-32H116l64-64,28,28v36Zm-88-64A24,24,0,1,0,96,88,24,24,0,0,0,120,112Zm0-32a8,8,0,1,1-8,8A8,8,0,0,1,120,80Z"/></svg>
